X: 3258
T: Behind The Haystack
R: jig
M: 6/8
K: Dmajor
AB|:{g}d2e fdA|{g}d2e fdB|A/B/AF EDE|F/A/FE EFA|
{g}dde fdA|gfg edB|A^GA B/c/dB|AFD DFA:|
|:{c}B2B BAF|ABc d2B|A/B/AF EDE|F/A/FE EFA|
{c}B2B BAF|ABc d2B|A^GA B/c/dB|AFD DFA:|

